bilder/erklaerungen/10.svg

<?xml version="1.0" encoding="UTF-8" standalone="no"?><!DOCTYPE svg PUBLIC "-//W3C//DTD SVG 1.1//EN" "http://www.w3.org/Graphics/SVG/1.1/DTD/svg11.dtd"><svg width="100%" height="100%" viewBox="0 0 2397 3166" version="1.1" xmlns="http://www.w3.org/2000/svg" xmlns:xlink="http://www.w3.org/1999/xlink" xml:space="preserve" xmlns:serif="http://www.serif.com/" style="fill-rule:evenodd;clip-rule:evenodd;stroke-linejoin:round;stroke-miterlimit:2;"><g><g><path d="M2396.87,347.813c-0,-191.963 -155.85,-347.813 -347.813,-347.813l-1623.12,0c-191.963,0 -347.812,155.85 -347.812,347.813l-0,2391.87c-0,191.963 155.849,347.813 347.812,347.813l1623.12,-0c191.963,-0 347.813,-155.85 347.813,-347.813l-0,-2391.87Z" style="fill:#adcfdd;"/><path d="M2318.75,425.935c-0,-191.963 -155.85,-347.812 -347.813,-347.812l-1623.12,-0c-191.963,-0 -347.813,155.849 -347.813,347.812l-0,2391.88c-0,191.963 155.85,347.813 347.813,347.813l1623.12,-0c191.963,-0 347.813,-155.85 347.813,-347.813l-0,-2391.88Z" style="fill:#ebebeb;"/></g><g transform="matrix(3.125,0,0,3.125,-11145.3,370.31)"><text x="3630px" y="18.154px" style="font-family:'TrebuchetMS', 'Trebuchet MS', sans-serif;font-size:66.667px;">Mit einer 10 Darf</text><text x="3630px" y="84.82px" style="font-family:'TrebuchetMS', 'Trebuchet MS', sans-serif;font-size:66.667px;">man sich aussuchen,</text><text x="3630px" y="151.487px" style="font-family:'TrebuchetMS', 'Trebuchet MS', sans-serif;font-size:66.667px;">ob man lieber die</text><text x="3630px" y="218.154px" style="font-family:'TrebuchetMS', 'Trebuchet MS', sans-serif;font-size:66.667px;">Aktion einer <tspan x="4011.15px 4050.47px " y="218.154px 218.154px ">Ac</tspan>ht</text><text x="3630px" y="284.82px" style="font-family:'TrebuchetMS', 'Trebuchet MS', sans-serif;font-size:66.667px;">oder einer Neun</text><text x="3630px" y="351.487px" style="font-family:'TrebuchetMS', 'Trebuchet MS', sans-serif;font-size:66.667px;">ausführen will.</text></g></g></svg>

<?xml version="1.0" encoding="UTF-8" standalone="no"?>
<!DOCTYPE svg PUBLIC "-//W3C//DTD SVG 1.1//EN" "http://www.w3.org/Graphics/SVG/1.1/DTD/svg11.dtd">
<svg width="100%" height="100%" viewBox="0 0 2397 3166" version="1.1" xmlns="http://www.w3.org/2000/svg" xmlns:xlink="http://www.w3.org/1999/xlink" xml:space="preserve" xmlns:serif="http://www.serif.com/" style="fill-rule:evenodd;clip-rule:evenodd;stroke-linejoin:round;stroke-miterlimit:2;">
    <g>
        <g>
            <path d="M2396.87,347.813C2396.87,155.85 2241.02,0 2049.06,0L425.937,0C233.974,0 78.125,155.85 78.125,347.813L78.125,2739.68C78.125,2931.65 233.974,3087.5 425.937,3087.5L2049.06,3087.5C2241.02,3087.5 2396.87,2931.65 2396.87,2739.68L2396.87,347.813Z" style="fill:rgb(173,207,221);"/>
            <path d="M2318.75,425.935C2318.75,233.972 2162.9,78.123 1970.94,78.123L347.817,78.123C155.854,78.123 0.004,233.972 0.004,425.935L0.004,2817.82C0.004,3009.78 155.854,3165.63 347.817,3165.63L1970.94,3165.63C2162.9,3165.63 2318.75,3009.78 2318.75,2817.82L2318.75,425.935Z" style="fill:rgb(235,235,235);"/>
        </g>
        <g>
            <g>
                <text x="190.141px" y="432.074px" style="font-family:'TrebuchetMS', 'Trebuchet MS', sans-serif;font-size:208.334px;">Mit einer 10 Darf man</text>
                <text x="190.141px" y="640.409px" style="font-family:'TrebuchetMS', 'Trebuchet MS', sans-serif;font-size:208.334px;">einem Mitspieler eine</text>
                <text x="190.141px" y="848.743px" style="font-family:'TrebuchetMS', 'Trebuchet MS', sans-serif;font-size:208.334px;">entweder oder frage</text>
                <text x="190.141px" y="1057.08px" style="font-family:'TrebuchetMS', 'Trebuchet MS', sans-serif;font-size:208.334px;">stellen und sagt</text>
                <text x="190.141px" y="1265.41px" style="font-family:'TrebuchetMS', 'Trebuchet MS', sans-serif;font-size:208.334px;">zudem was man</text>
                <text x="190.141px" y="1473.75px" style="font-family:'TrebuchetMS', 'Trebuchet MS', sans-serif;font-size:208.334px;">vermutet, was seine</text>
                <text x="190.141px" y="1682.08px" style="font-family:'TrebuchetMS', 'Trebuchet MS', sans-serif;font-size:208.334px;">Antwort ist. Hat man</text>
                <text x="190.141px" y="1890.41px" style="font-family:'TrebuchetMS', 'Trebuchet MS', sans-serif;font-size:208.334px;">die <tspan x="530.515px 653.4px " y="1890.41px 1890.41px ">An</tspan>twort richtig</text>
                <text x="190.141px" y="2098.75px" style="font-family:'TrebuchetMS', 'Trebuchet MS', sans-serif;font-size:208.334px;">geraten, muss der</text>
                <text x="190.141px" y="2307.08px" style="font-family:'TrebuchetMS', 'Trebuchet MS', sans-serif;font-size:208.334px;">gefragte Spieler</text>
                <text x="190.141px" y="2515.42px" style="font-family:'TrebuchetMS', 'Trebuchet MS', sans-serif;font-size:208.334px;">einen Schluck</text>
                <text x="190.141px" y="2723.75px" style="font-family:'TrebuchetMS', 'Trebuchet MS', sans-serif;font-size:208.334px;">trinken. <tspan x="987.264px 1110.15px " y="2723.75px 2723.75px ">An</tspan>sonsten</text>
                <text x="190.141px" y="2932.09px" style="font-family:'TrebuchetMS', 'Trebuchet MS', sans-serif;font-size:208.334px;">man selbst.</text>
            </g>
        </g>
    </g>
</svg>
